teeny/solid/pinterest.svg

<svg width="15" height="15" viewBox="0 0 15 15" fill="none" xmlns="http://www.w3.org/2000/svg">
<path d="M0 7.5C0 3.35786 3.35786 0 7.5 0C11.6421 0 15 3.35786 15 7.5C15 11.6421 11.6421 15 7.5 15C6.46585 15 5.48059 14.7907 4.58427 14.4121L6.49504 10.0447C6.97541 10.6368 7.70586 11 8.5 11C10.433 11 12 9.433 12 7.5V7C12 4.79086 10.2091 3 8 3H7C4.79086 3 3 4.79086 3 7V7.5C3 8.39609 3.33741 9.21457 3.89133 9.83346L4.63646 9.16654C4.2403 8.72391 4 8.14062 4 7.5V7C4 5.34315 5.34315 4 7 4H8C9.65685 4 11 5.34315 11 7V7.5C11 8.88071 9.88071 10 8.5 10C7.81943 10 7.21522 9.56451 7 8.91886L6.99463 8.90274L7.95815 6.70041L7.04199 6.29959L3.68991 13.9615C1.48133 12.6564 0 10.2512 0 7.5Z" fill="black"/>
</svg>

<svg viewBox="0 0 15 15" xmlns="http://www.w3.org/2000/svg"><path d="M0 7.5C0 3.35 3.35 0 7.5 0 11.64 0 15 3.35 15 7.5c0 4.14-3.36 7.5-7.5 7.5 -1.04 0-2.02-.21-2.92-.59l1.91-4.37c.48.59 1.21.95 2 .95 1.93 0 3.5-1.57 3.5-3.5v-.5c0-2.21-1.8-4-4-4h-1c-2.21 0-4 1.79-4 4v.5c0 .89.33 1.71.89 2.33l.74-.67c-.4-.45-.64-1.03-.64-1.67v-.5c0-1.66 1.34-3 3-3h1c1.65 0 3 1.34 3 3v.5c0 1.38-1.12 2.5-2.5 2.5 -.69 0-1.29-.44-1.5-1.09l-.01-.02 .96-2.21 -.92-.41 -3.36 7.66C1.44 12.6-.04 10.19-.04 7.44Z"/></svg>
